svg/fluentui-system-icons/ic_fluent_text_add_space_before_24_filled.svg

<svg width="24" height="24" viewBox="0 0 24 24" fill="none" xmlns="http://www.w3.org/2000/svg">
<path d="M9.29289 6.20711C8.90237 5.81658 8.90237 5.18342 9.29289 4.79289C9.68342 4.40237 10.3166 4.40237 10.7071 4.79289L12 6.08579L13.2929 4.79289C13.6834 4.40237 14.3166 4.40237 14.7071 4.79289C15.0976 5.18342 15.0976 5.81658 14.7071 6.20711L12.7071 8.20711C12.3166 8.59763 11.6834 8.59763 11.2929 8.20711L9.29289 6.20711ZM3 12C3 11.4477 3.44772 11 4 11H20C20.5523 11 21 11.4477 21 12C21 12.5523 20.5523 13 20 13H4C3.44772 13 3 12.5523 3 12ZM3 18C3 17.4477 3.44772 17 4 17H20C20.5523 17 21 17.4477 21 18C21 18.5523 20.5523 19 20 19H4C3.44772 19 3 18.5523 3 18Z" fill="#212121"/>
</svg>

<svg xmlns="http://www.w3.org/2000/svg" width="24" height="24"><path d="M9.293 6.207a1 1 0 0 1 1.414-1.414L12 6.086l1.293-1.293a1 1 0 1 1 1.414 1.414l-2 2a1 1 0 0 1-1.414 0l-2-2ZM3 12a1 1 0 0 1 1-1h16a1 1 0 1 1 0 2H4a1 1 0 0 1-1-1Zm0 6a1 1 0 0 1 1-1h16a1 1 0 1 1 0 2H4a1 1 0 0 1-1-1Z"/></svg>
